!!!OTL: 1. Das Lied der Deutschen.
!!!ARE: Europa, Mitteleuropa, Deutschland
!!!SCT: B0001
!!!TXL: @@DE
!!!YEM: Copyright 1995, estate of Helmut Schaffrath.
**kern	**text
*ICvox	*
*Ivox	*
*M4/4	*
*met(c)	*
*k[b-]	*
*F:	*
!LO:TX:a:t=Mäßig langſam	!
{4.f	Deutſchland,
8g	.
=1	=1
4a	Deutſchland
4g	.
4b-/	ü-
4a	-ber
=2	=2
8gL	Al-
8eJ	.
4f}	-les,
{4dd	ü-
4cc	-ber
=3	=3
4b-/	Al-
4a	-les
4g	in
8aL	der
8fJ	.
=4	=4
2cc}	Welt,
{4.f	wenn
8g	es
=5	=5
4a	ſtets
4g	ʒu
4b-/	Schutʒ
4a	und
=6	=6
8gL	Tru-
8eJ	.
4f}	-tʒe
{4dd	brü-
4cc	-der-
=7	=7
4b-/	-lich
4a	ʒu-
4g	-ſam-
8aL	-men-
8fJ	.
=8	=8
2cc}	-hält,
{4g	von
4a	der
=9	=9
8gL	Maas
8eJ	.
4c	bis
4b-	an
4a	die
=10	=10
8gL	Me-
8eJ	.
4c}	-mel,
{4cc	von
4b-	der
=11	=11
4.a	Etſch
8a	bis
4bn	an
8bL	den
8ccJ	.
=12	=12
2cc;}	Belt
=||	=||
{4.ff	Deutſchland,
8ee	.
=13	=13
(8eeqq	.
4dd)	Deutſchland
4cc	.
4.dd	ü-
8cc	-ber
=14	=14
(8ccqq	.
4b-)	Al-
4a}	-les,
{4.g	ü-
16aL	-ber
16b-/J	.
=15	=15
8ccL	Al-
8ddJ	.
8b-L	-les
8gJ	.
4f	in
(16aqq	.
8gL)	der
8fJ	.
=16	=16
2f}	Welt!
{4.ff	Deutſchland,
8ee	.
=17	=17
(8eeqq	.
4dd)	Deutſchland
4cc	.
4.dd	ü-
8cc	-ber
=18	=18
(8ccqq	.
4b-)	Al-
4a}	-les,
{4.g	ü-
16aL	-ber
16b-J	.
=19	=19
8ccL	Al-
8ddJ	.
8b-L	-les
8gJ	.
4f	in
(16aqq	.
8gL)	der
8fJ	.
=20	=20
2f}	Welt!
==	==
!!!AGN: politisch, national, Vaterlands - Lied
!!!GTL: Vaterlandslieder und Heimathgrüße
!!!ONB: ESAC (Essen Associative Code) Database: BOEHME
!!!AMT: simple quadruple
!!!AIN: vox
!!!EED: Helmut Schaffrath
!!!EEV: 1.0
!! Mel.: "Gott erhalte Franz den Kaiser." Haydn 1791.
!!@@COMMENT: Gedicht von Heinrich Hoffmann v. Fallersleben, am 26. Aug. 1841 während seines Sommerausenthalts auf Helgoland entstanden und zuerst gedruct als Flugblatt im Sept. 1841
!! mit beigefügter Musik Haydns und Hofmann's Bildniß in Holzschnitt zu Hamburg von der Verlagshandlung Hofmann und Campe; dann in Hofmann’s Volksgesangbuch 1848, wo der Vers.
!! in Str. 2, 5 und statt uns feßt, welche Lesart in viele Liederbücer überging. 
!!@@END:
!!Text: Heinrich Hoffmann v. Fallersleben
!!!URL-scan: https://archive.org/details/BoehmeVtLieder1895/page/n25/mode/2up
!!!EED: Anna Maria Matuszewska
!!!EEV: 2024/13/06
*-	*-
